client/src/shared/assets/icons/service.svg

<svg width="24" height="24" viewBox="0 0 24 24" fill="none" xmlns="http://www.w3.org/2000/svg">
<path d="M13.9346 9.67314C13.9742 9.87107 14.1289 10.0258 14.3269 10.0654L16.2376 10.4475C16.4015 10.4803 16.571 10.429 16.6892 10.3108L20.7351 6.26491C20.9742 6.02578 21.3768 6.08868 21.5023 6.4027C21.8234 7.2058 22 8.08227 22 9C22 12.866 18.866 16 15 16C13.9729 16 12.9974 15.7788 12.1186 15.3814L5.80025 21.6998C5.608 21.892 5.34726 22 5.07538 22C3.37689 22 2 20.6231 2 18.9246C2 18.6527 2.108 18.392 2.30025 18.1997L8.61863 11.8814C8.22123 11.0026 8 10.0271 8 9C8 5.13401 11.134 2 15 2C15.9177 2 16.7942 2.17661 17.5973 2.49769C17.9113 2.62323 17.9742 3.02578 17.7351 3.26491L13.6892 7.31079C13.571 7.429 13.5197 7.59847 13.5525 7.7624L13.9346 9.67314Z" fill="#777777"/>
</svg>

<svg xmlns="http://www.w3.org/2000/svg" fill="currentColor" viewBox="0 0 24 24"><path d="M13.935 9.673a.5.5 0 0 0 .392.392l1.91.383a.5.5 0 0 0 .452-.137l4.046-4.046c.24-.24.642-.176.767.138a7 7 0 0 1-9.384 8.979L5.8 21.7c-.192.192-.453.3-.725.3A3.075 3.075 0 0 1 2 18.925c0-.272.108-.533.3-.725l6.32-6.32a7 7 0 0 1 8.979-9.384c.313.126.376.529.137.768L13.69 7.31a.5.5 0 0 0-.136.451z"/></svg>
